X:247
T:Anne Fraser MacKenzie
O:england
M:6/8
L:1/8
Q:180
K:A
z3 Ezz|A2A GAB|A2A BGE|c2c Bcd|edc BAG|A2A GAB|
W: E7 A E7 A E7 A E7 A E7 A E7
c2c dcd|edB EFG|A3- A2E|A2A GAB|A2A BGE|c2c Bcd|
W: A7 D E7 A A E7 A E7 A E7
edc BAG|A2A GAB|c2c dcd|edB EFG|A3- A2c/d/|
W: A E7 A E7 A7 D E7 A
e2c aga|f2d Bcd|c2A edc|Bcd efg|a2a gaf|
W: A D Bm A F#m Bm E7 A D
edc dcd|edB EFG|A3- A2c/d/|e2c aga|f2d Bcd|c2A edc|
W: A7 D E7 A A D Bm A F#m
Bcd efg|a2a gaf|edc dcd|edB EFG|A3- A2z|
W: Bm E7 A D A7 D E7 A
